X:9
T:Garabet's Hornpipe
S:John Moore's Book 3
Z:Transcribed by Steve Mansfield 05/2021
%%VWML: Moore1-4495-p6-0
F:https://www.vwml.org/record/Moore3/4495/p6
M:C
L:1/8
K:Bb
FE | DFBd fgfe | d2B2 B2dB | GABG edcB | AfcA F2 F/G/F/E/ | 
DF (3BAB dB (3BAB | GB (3BAB ec (3cBc | ABcA FAce | d2B2B2 :|
|: fe | dB (3BAB FB (3BAB | G2E2E2 cd | edef gecB | (3ABc FG F2dc | 
BFdB fd bf | gfef dfdB | GBGB FecA | F2B2B2 :|

